X:1
T: Cheryl Durnin
C:Bruce Shawyer
R:Strathspey
Q:128
K:D
M:4/4
L:1/16
|:A2|d3e d3A f3d AF3|G3A G3E B3G Ec3|d3e d3A f3d AF3|G3B AE3 D4 D2A2|
d3e d3A f3d AF3|G3A G3E B3G Ec3|d3e d3A f3d AF3|G3B AE3 D4 D2A2|
A3F AF3 B3G D3G|A3F d3A B3d gB3|A3F AF3 B3G D3G|G3E AC3 D4 D2F2|
A3F AF3 B3G D3G|A3F d3A B3d gB3|A3F AF3 B3G D3G|G3E AC3 D6:|
